image/iconmonstr-instagram-1.svg

<svg xmlns="http://www.w3.org/2000/svg" width="24" height="24" viewBox="0 0 24 24"><path d="M11.984 16.815c2.596 0 4.706-2.111 4.706-4.707 0-1.409-.623-2.674-1.606-3.538-.346-.303-.735-.556-1.158-.748-.593-.27-1.249-.421-1.941-.421s-1.349.151-1.941.421c-.424.194-.814.447-1.158.749-.985.864-1.608 2.129-1.608 3.538 0 2.595 2.112 4.706 4.706 4.706zm.016-8.184c1.921 0 3.479 1.557 3.479 3.478 0 1.921-1.558 3.479-3.479 3.479s-3.479-1.557-3.479-3.479c0-1.921 1.558-3.478 3.479-3.478zm5.223.369h6.777v10.278c0 2.608-2.114 4.722-4.722 4.722h-14.493c-2.608 0-4.785-2.114-4.785-4.722v-10.278h6.747c-.544.913-.872 1.969-.872 3.109 0 3.374 2.735 6.109 6.109 6.109s6.109-2.735 6.109-6.109c.001-1.14-.327-2.196-.87-3.109zm2.055-9h-12.278v5h-1v-5h-1v5h-1v-4.923c-.346.057-.682.143-1 .27v4.653h-1v-4.102c-1.202.857-2 2.246-2 3.824v3.278h7.473c1.167-1.282 2.798-2 4.511-2 1.722 0 3.351.725 4.511 2h7.505v-3.278c0-2.608-2.114-4.722-4.722-4.722zm2.722 5.265c0 .406-.333.735-.745.735h-2.511c-.411 0-.744-.329-.744-.735v-2.53c0-.406.333-.735.744-.735h2.511c.412 0 .745.329.745.735v2.53z"/></svg>

<svg width="24" height="24" viewBox="0 0 24 24" fill="none" xmlns="http://www.w3.org/2000/svg">
<g clip-path="url(#clip0)">
<path d="M11.984 16.815C14.58 16.815 16.69 14.704 16.69 12.108C16.69 10.699 16.067 9.434 15.084 8.57C14.738 8.267 14.349 8.014 13.926 7.822C13.333 7.552 12.677 7.401 11.985 7.401C11.293 7.401 10.636 7.552 10.044 7.822C9.62 8.016 9.23 8.269 8.886 8.571C7.901 9.435 7.278 10.7 7.278 12.109C7.278 14.704 9.39 16.815 11.984 16.815V16.815ZM12 8.631C13.921 8.631 15.479 10.188 15.479 12.109C15.479 14.03 13.921 15.588 12 15.588C10.079 15.588 8.521 14.031 8.521 12.109C8.521 10.188 10.079 8.631 12 8.631ZM17.223 9H24V19.278C24 21.886 21.886 24 19.278 24H4.785C2.177 24 0 21.886 0 19.278V9H6.747C6.203 9.913 5.875 10.969 5.875 12.109C5.875 15.483 8.61 18.218 11.984 18.218C15.358 18.218 18.093 15.483 18.093 12.109C18.094 10.969 17.766 9.913 17.223 9V9ZM19.278 0H7V5H6V0H5V5H4V0.077C3.654 0.134 3.318 0.22 3 0.347V5H2V0.898C0.798 1.755 0 3.144 0 4.722V8H7.473C8.64 6.718 10.271 6 11.984 6C13.706 6 15.335 6.725 16.495 8H24V4.722C24 2.114 21.886 0 19.278 0V0ZM22 5.265C22 5.671 21.667 6 21.255 6H18.744C18.333 6 18 5.671 18 5.265V2.735C18 2.329 18.333 2 18.744 2H21.255C21.667 2 22 2.329 22 2.735V5.265Z" fill="white" fill-opacity="0.75"/>
</g>
<defs>
<clipPath id="clip0">
<rect width="24" height="24" fill="white"/>
</clipPath>
</defs>
</svg>
